X:1
T:Title
%%score { 1 | ( 2 3 ) }
L:1/8
M:6/8
K:Db
V:1 treble nm="Grand Piano"
V:2 bass 
V:3 bass 
V:1
 z3 z2[Q:1/4=90] D | F_F=F G2 F | [_FB]3 [=FA]2 [DF] | [CE]2 [DF] [FA]2 [EG] | F3- F2 D | %5
 F_F=F G2 F | [_FB]2 [FB] [=FA]2 [FB] | cdc c2 B | [A,CA]3- [A,CA]2 A | e2 d cBA | %10
 [Fd]3 [FA]2 [FA] | B2 c dc[DGB] | [DFA]3- [DFA]2 [F,D] | [A,DF][=G,D_F][A,D=F] .[DFA]2 [DAc] | %14
 [DAc]3 [DGB]2 [DGB] | [DFA]2[K:bass] [F,D] [A,DF]2 [G,CE] |[M:5/8] D-D- D3 |[M:1/8][K:treble] D | %18
[M:3/4] FF [_FB] [=FA]3 | [FA][Fe] [Fd] [Gc]3 | cc B G2 B |[M:5/8] [GB]3 [FA]2 |[M:1/8] [EG] | %23
[M:3/4] [DF][DF] [EG] [FA]3 | [Af][Ae] [Ad] B3 | %25
 e[Q:1/4=79]d B A2 [DF][Q:1/4=89][Q:1/4=87][Q:1/4=86][Q:1/4=84][Q:1/4=83][Q:1/4=82][Q:1/4=80][Q:1/4=77][Q:1/4=76][Q:1/4=75][Q:1/4=73][Q:1/4=72][Q:1/4=70][Q:1/4=69] | %26
[M:5/8] [CE]3 D2 |] %27
V:2
 z3 z2 [D,F,] | [D,A,D][D,=G,D][D,A,D] [D,B,D]2 [D,A,D] | [D,=G,]3 [D,A,]2 [D,A,] | %3
 [A,,A,]2 [A,,A,] [A,,A,]2 [A,,A,] | [D,A,D]3- [D,A,D]2 [D,F,] | .A,3 z3 | %6
 [D,=G,]2 [D,G,] [D,A,]2 [D,A,] | [E,E]-[E,B,E][E,A,E] [E,=G,E]2 [E,G,D] | A,,3- A,,2 A, | z3 .E3 | %10
 [D,A,]3 [D,D]2 [D,D] | [G,DG]2 [G,CG] [G,G]-[G,CG]G, | D,3- D,2 D, | %13
 D,D,D, z[K:treble] d[K:bass]F, | G,3 G,2 G, | A,2 A,, A,,2 A,, |[M:5/8] [D,F,]-[D,F,]- [D,F,]3 | %17
[M:1/8] [D,F,] |[M:3/4] [D,A,D][D,A,D] [D,=G,] [D,A,]3 | [D,A,][D,A,] [D,A,] [E,A,]3 | %20
 [A,EG][A,EG] [A,DG] [A,CE]2 [A,CG] |[M:5/8][K:bass] [D,D]3 [D,D]2 |[M:1/8] [C,A,] | %23
[M:3/4] [D,A,][D,A,] [D,A,] [D,D]3 | [D,D][E,C] [F,D][K:treble] [G,DG]3 | %25
 [G,B,G][G,B,G] [G,DG] [A,DF]2[K:bass] [A,,A,] |[M:5/8] [A,,G,]3 [D,F,]2 |] %27
V:3
 x6 | x6 | x6 | x6 | x6 | [D,D]-[D,=G,D][D,A,D] [D,A,D]2 [D,A,D] | x6 | .A,3 z3 | x6 | %9
 [A,CG]2 [A,DG] [A,G]-[A,DG][A,CG] | x6 | z3 .B,3 | x6 | z3 .D,3[K:treble][K:bass] | x6 | x6 | %16
[M:5/8] x5 |[M:1/8] x |[M:3/4] x6 | x6 | x6 |[M:5/8][K:bass] x5 |[M:1/8] x |[M:3/4] x6 | %24
 x3[K:treble] x3 | x5[K:bass] x |[M:5/8] x5 |] %27

